assets/images/iolce_logo.svg

<svg height="9" viewBox="0 0 49 9" width="49" xmlns="http://www.w3.org/2000/svg"><path d="m0 8.87637363v-8.7342033h1.57860747v8.7342033zm11.1095493.12362637c-2.90240032 0-4.23862317-2.11401099-4.23862317-4.49381868s1.33622285-4.49381868 4.23862317-4.49381868c2.9024004 0 4.2386232 2.11401099 4.2386232 4.49381868s-1.3362228 4.49381868-4.2386232 4.49381868zm0-1.3907967c1.883142 0 2.5730059-1.45260989 2.5730059-3.10302198 0-1.64423077-.6898639-3.09684066-2.5730059-3.09684066-1.88314195 0-2.57300584 1.45260989-2.57300584 3.09684066 0 1.65041209.68986389 3.10302198 2.57300584 3.10302198zm9.5309419 1.26717033v-8.7342033h1.5786075v7.25068681h3.7538539v1.48351649zm13.5955453.12362637c-2.8899703 0-4.2510531-2.09546703-4.2510531-4.49381868 0-2.39217033 1.3486528-4.50618132 4.2386232-4.50618132 1.7401972 0 3.1323549.87774725 3.8408638 2.50961538l-1.4729526.58104396c-.3293945-1.14972527-1.2367831-1.59478022-2.3803412-1.59478022-1.858282 0-2.6600158 1.32898352-2.6600158 2.94848901 0 1.73695055.8017338 3.06593407 2.6848757 3.06593407 1.1311282 0 1.908002-.44505495 2.3803412-1.6195055l1.4605227.5934066c-.6960789 1.63186813-2.0944517 2.5157967-3.8408639 2.5157967zm8.9218729-.12362637v-8.7342033h5.8420906v1.44024725h-4.2634832v2.20673077h3.9713787v1.44024725h-3.9713787v2.16346154h4.2634832v1.48351649z" fill-rule="evenodd"/></svg>

<svg xmlns="http://www.w3.org/2000/svg" width="49" height="9"><path fill-rule="evenodd" d="M0 8.88V.14h1.58v8.74zM11.1 9C8.2 9 6.88 6.9 6.88 4.5S8.2 0 11.1 0c2.9 0 4.25 2.13 4.25 4.5S14 9 11.1 9zm0-1.4c1.9 0 2.58-1.44 2.58-3.1 0-1.64-.7-3.1-2.57-3.1S8.55 2.87 8.55 4.5c0 1.66.7 3.1 2.57 3.1zm9.54 1.28V.14h1.58V7.4h3.75v1.48zm13.6.12C31.34 9 30 6.9 30 4.5S31.32 0 34.2 0c1.74 0 3.14.88 3.85 2.5l-1.48.6c-.34-1.16-1.24-1.6-2.4-1.6-1.85 0-2.65 1.32-2.65 2.94 0 1.74.8 3.07 2.7 3.07 1.12 0 1.9-.43 2.37-1.6l1.46.58C37.38 8.12 35.98 9 34.24 9zm8.92-.12V.14H49v1.44h-4.26v2.2h3.97v1.45h-3.96V7.4H49v1.48z"/></svg>
